X: 41277
T: Tullagh Bay
R: hornpipe
M: 4/4
K: Dminor
|:D2 FD EFGE|F2 cF GECE|D2 A,D FABd|fage fdAF|
D2 FD EFGE|F2 cF G2 Bd|Ad (3Bcd AGEG|1 (3FAF D2 D2 A,C:|2 (3FAF D2 D3 F||
|:GBdf efge|afef d2 fa|bgaf gfeg|(3fbf ga d2 dc|
Bdfa e2 fe|dcAF G2 Bd|Ad (3Bcd AGEG|1 (3FAF D2 D3 F:|2 (3FAF D2 D4||

